X:1
T:Title
%%score 1 { ( 2 4 ) | 3 }
L:1/8
Q:1/4=100
M:4/4
K:F
V:1 treble nm="Violin"
V:2 treble nm="Grand Piano"
V:4 treble 
V:3 bass 
V:1
 C2 F2 A2 c2 | d2 =B2 c4 | c2 G2 ^F2 G2 | B4 A4 | C2 F2 A2 c2 | d2 =B2 c4 | c2 F2 B2 A2 | G4 F4 | %8
w: Robert~Harkness * * *||||||||
 z8 | z8 | z8 | z8 | z8 | z8 | z8 | z8 |] %16
w: ||||||||
V:2
 [CFAc]4 [FAc]4 | d2 =B2 c4 | [Ec]2 [B,EG]2 [A,_E^F]2 [B,=EG]2 | [DFB]4 [CFA]4 | [CFAc]4 [FAc]4 | %5
 d2 =B2 c4 | [Fc]2 [A,F]2 [DFB]2 [CFA]2 | [B,G]2- [B,EG]2 F4 | c2 A2 G2 F2 | [Ec]4 [EG]4 | %10
 [Ed]2 [EB]2 A2 G2 | c4 z4 | F2 G2 A2 [FAc]2 | [Fcf]2 [Fce]2 [FBd]4 | %14
 [FAc]2 [CFA]2 [B,EG]2 [A,F]2 | [B,EG]4 [A,F]4 |] %16
V:3
 C,2 F,2 A,2[K:treble] C2 | [=B,F_A]2 [DFA]2 [CF=A]4 | [C,B,]2 C,2 C,2 C,2 | F,4 F,4 | %4
 C,2 F,2 A,2[K:treble] C2 | [=B,F_A]2 [CFA]2 [CF=A]4 | [C,A,]2 C,2 C,2 C,2 | C,4 [F,A,]4 | %8
 [F,A,F]2 [F,CF]2 [F,B,F]2 [F,A,]2 | [C,G,]4 [C,C]4 | [C,B,]2 [C,C]2[K:treble] [CE]2 [B,CE]2 | %11
 [A,CF]2 [G,B,]2 [F,CF]4 | [F,A,]2 [F,B,F]2 [F,CF]2 F,2 | A,2 A,2 B,4 | C,2 C,2 C,2 C,2 | %15
 C,4 F,4 |] %16
V:4
 x8 | x8 | x8 | x8 | x8 | x8 | x8 | D2 z2 z4 | x8 | x8 | x8 | z2 E2 A4 | x8 | x8 | x8 | x8 |] %16

